Newaita/actions/24/format-justify-fill.svg

<?xml version="1.0" encoding="UTF-8"?>
<svg xmlns="http://www.w3.org/2000/svg" xmlns:xlink="http://www.w3.org/1999/xlink" width="24pt" height="24pt" viewBox="0 0 24 24" version="1.1">
<g id="surface1">
<path style=" stroke:none;fill-rule:nonzero;fill:rgb(25.882354%,25.882354%,25.882354%);fill-opacity:1;" d="M 2.605469 3.164062 L 21.210938 3.164062 C 21.550781 3.164062 21.832031 3.386719 21.832031 3.660156 L 21.832031 4.15625 C 21.832031 4.429688 21.550781 4.652344 21.210938 4.652344 L 2.605469 4.652344 C 2.261719 4.652344 1.984375 4.429688 1.984375 4.15625 L 1.984375 3.660156 C 1.984375 3.386719 2.261719 3.164062 2.605469 3.164062 Z M 2.605469 3.164062 "/>
<path style=" stroke:none;fill-rule:nonzero;fill:rgb(25.882354%,25.882354%,25.882354%);fill-opacity:1;" d="M 2.605469 8.621094 L 21.210938 8.621094 C 21.550781 8.621094 21.832031 8.84375 21.832031 9.117188 L 21.832031 9.613281 C 21.832031 9.886719 21.550781 10.109375 21.210938 10.109375 L 2.605469 10.109375 C 2.261719 10.109375 1.984375 9.886719 1.984375 9.613281 L 1.984375 9.117188 C 1.984375 8.84375 2.261719 8.621094 2.605469 8.621094 Z M 2.605469 8.621094 "/>
<path style=" stroke:none;fill-rule:nonzero;fill:rgb(25.882354%,25.882354%,25.882354%);fill-opacity:1;" d="M 2.605469 19.535156 L 21.210938 19.535156 C 21.550781 19.535156 21.832031 19.757812 21.832031 20.03125 L 21.832031 20.53125 C 21.832031 20.804688 21.550781 21.027344 21.210938 21.027344 L 2.605469 21.027344 C 2.261719 21.027344 1.984375 20.804688 1.984375 20.53125 L 1.984375 20.03125 C 1.984375 19.757812 2.261719 19.535156 2.605469 19.535156 Z M 2.605469 19.535156 "/>
<path style=" stroke:none;fill-rule:nonzero;fill:rgb(25.882354%,25.882354%,25.882354%);fill-opacity:1;" d="M 2.605469 14.078125 L 21.210938 14.078125 C 21.550781 14.078125 21.832031 14.300781 21.832031 14.574219 L 21.832031 15.070312 C 21.832031 15.347656 21.550781 15.566406 21.210938 15.566406 L 2.605469 15.566406 C 2.261719 15.566406 1.984375 15.347656 1.984375 15.070312 L 1.984375 14.574219 C 1.984375 14.300781 2.261719 14.078125 2.605469 14.078125 Z M 2.605469 14.078125 "/>
</g>
</svg>

<svg xmlns="http://www.w3.org/2000/svg" width="32" height="32" viewBox="0 0 24 24"><g fill="#424242"><path d="M2.605 3.164h18.606c.34 0 .621.223.621.496v.496c0 .274-.281.496-.621.496H2.605c-.343 0-.62-.222-.62-.496V3.66c0-.273.277-.496.62-.496zm0 0M2.605 8.621h18.606c.34 0 .621.223.621.496v.496c0 .274-.281.496-.621.496H2.605c-.343 0-.62-.222-.62-.496v-.496c0-.273.277-.496.62-.496zm0 0M2.605 19.535h18.606c.34 0 .621.223.621.496v.5c0 .274-.281.496-.621.496H2.605c-.343 0-.62-.222-.62-.496v-.5c0-.273.277-.496.62-.496zm0 0M2.605 14.078h18.606c.34 0 .621.223.621.496v.496c0 .278-.281.496-.621.496H2.605c-.343 0-.62-.218-.62-.496v-.496c0-.273.277-.496.62-.496zm0 0"/></g></svg>
